X: 2948
T: Barrington
R: hornpipe
M: 4/4
K: Gmajor
|:B>c|d<bg>d B<gd>B|G<ec>A F>dB>G|D>EF>G A>Bc<d|e>d^c>d A2 B>=c|
d<bg>d B<gd>B|G<ec>A F>dB>G|D>EF>G A>ed<F|G2 B2 G2:|
|:(3ABc|d>^cd>B G>Bd>g|e>^d>ec G>ce>g|d>bc>a B>gA>G|F<ed>^c d2 B>=c|
d>^cd>B G>Bd>g|e>^de>c G>ce>g|d>gf>e (3ded (3cBA|(3GBd (3gdB G2:|

